src/icons/upload-file.svg

<svg xmlns="http://www.w3.org/2000/svg" width="512" height="512" viewBox="0 0 512 512">
    <path d="M430.9 110c-4.5-4.5-9.7-6.7-15.8-6.7H302.7c-6.1 0-11.4 2.2-15.8 6.7-4.5 4.5-6.7 9.7-6.7 15.8-1.9 13.6-9.4 21.1-22.5 22.5H100.3c-6.1 0-11.4 2.1-15.8 6.3-4.4 4.2-6.7 9.4-6.7 15.5v203.1c0 6.1 2.2 11.4 6.7 15.8 4.5 4.5 9.7 6.7 15.8 6.7h138.4V276.3l-29.8 29.6c-7.5 7.3-19.5 7.3-26.7 0-7.3-7.4-7.3-19.3.1-26.6l62.1-61.6c3.5-3.7 8.1-5.6 13.3-5.6 5.1 0 9.7 1.8 13.2 5.6l62.2 61.6c7.5 7.3 7.5 19.2 0 26.5-7.4 7.3-19.4 7.3-26.7 0l-29.9-29.5v119.3H415c6.1 0 11.4-2.2 15.8-6.7 4.5-4.4 6.703-9.7 6.703-15.8V125.7c.097-6-2.103-11.3-6.603-15.7z"/>
</svg>

<?xml version="1.0" encoding="UTF-8"?>
<svg width="512px" height="512px" viewBox="0 0 512 512" version="1.1" xmlns="http://www.w3.org/2000/svg" xmlns:xlink="http://www.w3.org/1999/xlink">
    <!-- Generator: Sketch 62 (91390) - https://sketch.com -->
    <title>upload-file</title>
    <desc>Created with Sketch.</desc>
    <g id="upload-file" stroke="none" stroke-width="1" fill="none" fill-rule="evenodd">
        <path d="M430.9,110 C426.4,105.5 421.2,103.3 415.1,103.3 L302.7,103.3 C296.6,103.3 291.3,105.5 286.9,110 C282.4,114.5 280.2,119.7 280.2,125.8 C278.3,139.4 270.8,146.9 257.7,148.3 L100.3,148.3 C94.2,148.3 88.9,150.4 84.5,154.6 C80.1,158.8 77.8,164 77.8,170.1 L77.8,373.2 C77.8,379.3 80,384.6 84.5,389 C89,393.5 94.2,395.7 100.3,395.7 L238.7,395.7 L238.7,276.3 L208.9,305.9 C201.4,313.2 189.4,313.2 182.2,305.9 C174.9,298.5 174.9,286.6 182.3,279.3 L244.4,217.7 C247.9,214 252.5,212.1 257.7,212.1 C262.8,212.1 267.4,213.9 270.9,217.7 L333.1,279.3 C340.6,286.6 340.6,298.5 333.1,305.8 C325.7,313.1 313.7,313.1 306.4,305.8 L276.5,276.3 L276.5,395.6 L415,395.6 C421.1,395.6 426.4,393.4 430.8,388.9 C435.3,384.5 437.503261,379.2 437.503261,373.1 L437.503261,193.2 L437.503261,170 L437.503261,125.7 C437.6,119.7 435.4,114.4 430.9,110 Z" id="Path" fill="#000000" fill-rule="nonzero"></path>
    </g>
</svg>
